web/packages/design/src/ResourceIcon/assets/coefficient-dark.svg

<svg width="72" height="72" viewBox="0 0 72 72" fill="none" xmlns="http://www.w3.org/2000/svg">
<g clip-path="url(#clip0_15936_7122)">
<path d="M61.8133 14.0804L61.8161 14.0828C62.0818 14.3125 62.3521 14.5461 62.6305 14.7842V14.7803C62.9779 14.4294 63.3177 14.0781 63.6548 13.7296C64.4239 12.9345 65.1793 12.1535 65.9797 11.4234C66.6449 10.8204 66.5165 10.4431 65.9097 9.96077C65.4388 9.58598 64.9796 9.19374 64.5203 8.80149C63.6782 8.08236 62.8362 7.36322 61.9225 6.75159C50.0506 -1.20713 37.5446 -2.19127 24.778 4.1298C10.5526 11.1744 2.98674 26.9285 5.83415 42.5464C8.86827 59.1757 23.1792 71.5184 39.9874 71.9852C48.1446 72.2107 55.5665 69.9469 62.2026 65.205C63.2675 64.4436 64.265 63.5875 65.2972 62.7015L65.2993 62.6997C65.7748 62.2917 66.2575 61.8773 66.7577 61.463C65.5207 60.2532 64.4471 59.2029 63.3735 58.1487L63.3675 58.1429C62.5605 57.3514 62.5545 57.3455 61.7086 58.1332C57.4336 62.1242 52.4079 64.6955 46.6742 65.7302C40.8938 66.7727 35.2184 66.2514 29.7531 63.9719C22.4712 60.93 17.1421 55.8071 13.7928 48.7002C11.0388 42.8615 10.327 36.696 11.5795 30.3633C13.3883 21.2259 18.4607 14.3525 26.4934 9.73129C32.2271 6.43651 38.4665 5.35123 45.0248 6.16811C50.7041 6.87607 55.757 9.05832 60.1799 12.6915C60.7259 13.1404 61.2598 13.6019 61.8133 14.0804Z" fill="white"/>
<path d="M58.7854 27.1153C59.0876 27.6251 59.3952 28.1441 59.7216 28.6683L59.7293 28.6644C60.2001 28.4721 60.6748 28.2776 61.1525 28.0818C62.23 27.6403 63.3224 27.1927 64.4167 26.7506C64.9062 26.5534 64.7772 26.2574 64.6416 25.9462C64.6274 25.9137 64.6132 25.8809 64.5995 25.8482C60.8419 16.8236 51.1638 10.312 41.3924 10.417C31.1386 10.5259 23.2733 14.9954 18.3837 24.0433C13.9025 32.3365 14.1592 40.8126 18.7649 49.0164C22.0907 54.9329 27.1826 58.7917 33.6787 60.7678C39.1518 62.4327 44.5704 62.207 49.9424 60.2776C50.5492 60.0598 50.7554 59.8341 50.4559 59.1729C49.8918 57.9281 49.4017 56.6484 48.9271 55.3686C48.7015 54.7618 48.437 54.6412 47.7913 54.8668C42.2054 56.8195 36.7673 56.4811 31.5354 53.6493C26.1868 50.7552 22.8804 46.2701 21.5345 40.3886C19.644 32.1381 23.3744 23.5804 30.6913 19.0875C39.3113 13.7934 50.8293 15.9679 56.8431 24.0783C57.5478 25.0276 58.1548 26.0515 58.7854 27.1153Z" fill="white"/>
<path d="M48.1447 29.3479C46.7365 28.076 45.3089 27.1813 43.6208 26.7262C37.7003 25.1157 31.671 29.6242 31.5699 35.7779C31.5037 39.8818 33.3553 42.9548 37.0001 44.7209C40.7189 46.5219 44.3054 45.9928 47.5145 43.3244C47.5452 43.2989 47.5751 43.273 47.6045 43.2476C47.8621 43.0252 48.0803 42.8368 48.4364 43.1999C49.2819 44.0591 50.1371 44.9086 51.0186 45.7843C51.3822 46.1454 51.7504 46.5111 52.124 46.8836C52.0332 46.9796 51.9502 47.0735 51.8705 47.1635C51.7112 47.3436 51.5652 47.5086 51.3967 47.6461C46.826 51.427 41.668 52.5745 36.0627 50.5946C30.5001 48.6302 27.0615 44.608 26.0267 38.7615C24.4669 29.9393 30.4146 21.9105 39.2446 20.7863C43.8581 20.199 47.8996 21.5332 51.4394 24.5128C52.0307 25.0107 52.1046 25.3297 51.4978 25.9054C50.6635 26.6892 49.8758 27.5236 49.0762 28.3707C48.7686 28.6966 48.4592 29.0244 48.1447 29.3519V29.3479Z" fill="white"/>
<path d="M46.3111 36.2695C46.3111 39.0477 44.0589 41.2998 41.2807 41.2998C38.5025 41.2998 36.2503 39.0477 36.2503 36.2695C36.2503 33.4913 38.5025 31.2391 41.2807 31.2391C44.0589 31.2391 46.3111 33.4913 46.3111 36.2695Z" fill="white"/>
</g>
<defs>
<clipPath id="clip0_15936_7122">
<rect width="72" height="72" fill="white" transform="translate(0 0.000488281)"/>
</clipPath>
</defs>
</svg>

<svg xmlns="http://www.w3.org/2000/svg" width="72" height="72" fill="none" viewBox="0 0 72 72"><g fill="#fff" clip-path="url(#clip0_15936_7122)"><path d="m61.813 14.08.003.003q.398.345.814.701v-.004q.52-.526 1.025-1.05c.769-.796 1.524-1.577 2.325-2.307.665-.603.536-.98-.07-1.462a52 52 0 0 1-1.39-1.16c-.842-.719-1.684-1.438-2.597-2.05C50.05-1.206 37.545-2.19 24.777 4.13 10.553 11.174 2.987 26.929 5.834 42.546c3.034 16.63 17.345 28.972 34.153 29.44 8.158.225 15.58-2.04 22.216-6.781 1.064-.761 2.062-1.617 3.094-2.503l.002-.002c.476-.408.958-.823 1.459-1.237-1.237-1.21-2.31-2.26-3.384-3.314l-.007-.006c-.806-.792-.812-.797-1.658-.01-4.275 3.991-9.301 6.562-15.035 7.597-5.78 1.043-11.456.521-16.92-1.758C22.47 60.93 17.141 55.807 13.792 48.7c-2.754-5.839-3.466-12.004-2.213-18.337 1.808-9.137 6.88-16.01 14.913-20.632 5.734-3.294 11.974-4.38 18.532-3.563 5.68.708 10.732 2.89 15.155 6.523.546.45 1.08.91 1.633 1.39"/><path d="M58.785 27.115c.303.51.61 1.03.937 1.553l.007-.004 1.424-.582c1.077-.442 2.17-.89 3.264-1.331.49-.198.36-.494.225-.805l-.042-.098c-3.758-9.024-13.436-15.536-23.208-15.431-10.253.109-18.119 4.578-23.008 13.626-4.482 8.294-4.225 16.77.38 24.973 3.327 5.917 8.419 9.776 14.915 11.752 5.473 1.665 10.891 1.439 16.263-.49.607-.218.813-.444.514-1.105-.564-1.245-1.054-2.525-1.529-3.804-.225-.607-.49-.728-1.136-.502-5.586 1.953-11.024 1.614-16.256-1.218-5.348-2.894-8.655-7.379-10-13.26-1.891-8.25 1.84-16.809 9.156-21.302 8.62-5.294 20.138-3.12 26.152 4.991.705.95 1.312 1.974 1.942 3.037"/><path d="M48.145 29.348c-1.409-1.272-2.836-2.167-4.524-2.622-5.92-1.61-11.95 2.898-12.051 9.052-.066 4.104 1.785 7.177 5.43 8.943 3.719 1.8 7.305 1.272 10.514-1.397l.09-.076c.258-.223.476-.411.832-.048a300 300 0 0 0 2.583 2.584l1.105 1.1q-.134.144-.254.28c-.159.18-.305.345-.473.482-4.571 3.781-9.729 4.929-15.334 2.949-5.563-1.965-9.002-5.987-10.036-11.833-1.56-8.823 4.388-16.851 13.218-17.976 4.613-.587 8.655.747 12.194 3.727.592.498.666.817.059 1.392-.834.784-1.622 1.619-2.422 2.466q-.46.49-.931.98z"/><path d="M46.311 36.27a5.03 5.03 0 1 1-10.06 0 5.03 5.03 0 0 1 10.06 0"/></g><defs><clipPath id="clip0_15936_7122"><path fill="#fff" d="M0 0h72v72H0z"/></clipPath></defs></svg>
